X: 3647
T:Out on the Ocean
R:Jig
C:Trad
Z:Planxty,Frankie Gavin......
M:6/8
L:1/8
K:A
L:1/8
Ecc cBA|cec B2c|AFE A2B|cec BAF|!
Ecc cBA|cec B2c|AFE A2B|1 cAG AGF:|2 cAG Ace|!
fff fec|faf fec|eee ecB|efe ecB|!
A2B c2e|faf ecB|AFE A2B|cAG Ace|!
fff fec|faf fec|eee efg|agf ecB|!
A2B c2e|faf ecB|AFE A2B|cAG A3|!
